icons/ArrowLeftNarrow.svg

<svg width="24" height="24" viewBox="0 0 24 24" fill="none" xmlns="http://www.w3.org/2000/svg">
<path fill-rule="evenodd" clip-rule="evenodd" d="M4.46967,12.5303c-0.29289,-0.2929 -0.29289,-0.7677 0,-1.0606l4,-4.00003c0.29289,-0.29289 0.76777,-0.29289 1.06066,0c0.29289,0.29289 0.29289,0.76777 0,1.06066l-2.71967,2.71967h12.18934c0.4142,0 0.75,0.3358 0.75,0.75c0,0.4142 -0.3358,0.75 -0.75,0.75h-12.18934l2.71967,2.7197c0.29289,0.2929 0.29289,0.7677 0,1.0606c-0.29289,0.2929 -0.76777,0.2929 -1.06066,0z" fill="#002B51"/>
</svg>

<svg width="24" height="24" viewBox="0 0 24 24" fill="none" xmlns="http://www.w3.org/2000/svg">
<path fill-rule="evenodd" clip-rule="evenodd" d="M4.46967 12.5303C4.17678 12.2374 4.17678 11.7626 4.46967 11.4697L8.46967 7.46967C8.76256 7.17678 9.23744 7.17678 9.53033 7.46967C9.82322 7.76256 9.82322 8.23744 9.53033 8.53033L6.81066 11.25H19C19.4142 11.25 19.75 11.5858 19.75 12C19.75 12.4142 19.4142 12.75 19 12.75H6.81066L9.53033 15.4697C9.82322 15.7626 9.82322 16.2374 9.53033 16.5303C9.23744 16.8232 8.76256 16.8232 8.46967 16.5303L4.46967 12.5303Z" fill="#002B51"/>
</svg>
